X: 14024
T: EPH'S HORNPIPE
C: Bob McQuillen May'10
B: Bob's Note Book 14 #24
%R: hornpipe, reel
%D:2010
Z: 2020 John Chambers <jc:trillian.mit.edu>
M: C
L: 1/8
K: D
dB \
| A2AF BAdB | Adfd B2df | a2fd edBd | AdAF EFDF |
| A2Ad BAdB | Adfd B2df | afdB cAce | d2f2 d2  :|
|: fg \
| afdf geAg | fded c2A2 | B2GB Adfa | gfed cBAG |
| FAdB cBA2 | efge dfa2 | gfed cBAG | F2D2 D2  :|
%%begintext align
%% When Neffa was
%% held in Natick, Eph Weiss used to be in charge
%% of festival parking, and he always helped me
%% find a good place to park, not far from the
%% hall. I sure appreciated your help, Eph - Thanks
%% ever so much!
%%endtext
